static/icons/close.svg

<svg xmlns="http://www.w3.org/2000/svg"  viewBox="0 0 26 26" width="96px" height="96px"><path d="M 21.734375 19.640625 L 19.636719 21.734375 C 19.253906 22.121094 18.628906 22.121094 18.242188 21.734375 L 13 16.496094 L 7.761719 21.734375 C 7.375 22.121094 6.746094 22.121094 6.363281 21.734375 L 4.265625 19.640625 C 3.878906 19.253906 3.878906 18.628906 4.265625 18.242188 L 9.503906 13 L 4.265625 7.761719 C 3.882813 7.371094 3.882813 6.742188 4.265625 6.363281 L 6.363281 4.265625 C 6.746094 3.878906 7.375 3.878906 7.761719 4.265625 L 13 9.507813 L 18.242188 4.265625 C 18.628906 3.878906 19.257813 3.878906 19.636719 4.265625 L 21.734375 6.359375 C 22.121094 6.746094 22.121094 7.375 21.738281 7.761719 L 16.496094 13 L 21.734375 18.242188 C 22.121094 18.628906 22.121094 19.253906 21.734375 19.640625 Z"/></svg>

<svg xmlns="http://www.w3.org/2000/svg" width="96" height="96" viewBox="0 0 26 26"><path d="m21.734 19.64-2.097 2.094a.983.983 0 0 1-1.395 0L13 16.496l-5.238 5.238a.99.99 0 0 1-1.399 0l-2.097-2.093a.99.99 0 0 1 0-1.399L9.504 13 4.266 7.762a.995.995 0 0 1 0-1.399l2.097-2.097a.99.99 0 0 1 1.399 0L13 9.508l5.242-5.242a.983.983 0 0 1 1.395 0l2.097 2.093a.996.996 0 0 1 .004 1.403L16.496 13l5.238 5.242a.99.99 0 0 1 0 1.399"/></svg>
